X:24
T:Tali Foster's
M:6/8
L:1/8
C:Solomon Foster
O: For Tali Foster, 199?-2009
R:Jig
K:G major
D|:+mp+ ~G3 DGB|ded cAF|~B3 DGB|ABG FED|
~G3 DGB|ded cAF|d>ed cAF|[1 AGF G2D:|[2 AGF GBd|
|:+ff+ ~g3 dgg|efg edB|~a3 ef^g|afe ^cBA|
~g3 dgg|egg dBG|d>ed cAF|[1 AGF GBd:|[2 AGF G3|]

